icons/columns-24.svg

<svg width="24" height="24" viewBox="0 0 24 24" fill="none" xmlns="http://www.w3.org/2000/svg">
<path fill-rule="evenodd" clip-rule="evenodd" d="M3.75 2C2.7835 2 2 2.7835 2 3.75V20.25C2 21.2165 2.7835 22 3.75 22H9.25C10.2165 22 11 21.2165 11 20.25V3.75C11 2.7835 10.2165 2 9.25 2H3.75ZM3.5 3.75C3.5 3.61193 3.61193 3.5 3.75 3.5H9.25C9.38807 3.5 9.5 3.61193 9.5 3.75V20.25C9.5 20.3881 9.38807 20.5 9.25 20.5H3.75C3.61193 20.5 3.5 20.3881 3.5 20.25V3.75Z" fill="black"/>
<path fill-rule="evenodd" clip-rule="evenodd" d="M14.75 2C13.7835 2 13 2.7835 13 3.75V20.25C13 21.2165 13.7835 22 14.75 22H20.25C21.2165 22 22 21.2165 22 20.25V3.75C22 2.7835 21.2165 2 20.25 2H14.75ZM14.5 3.75C14.5 3.61193 14.6119 3.5 14.75 3.5H20.25C20.3881 3.5 20.5 3.61193 20.5 3.75V20.25C20.5 20.3881 20.3881 20.5 20.25 20.5H14.75C14.6119 20.5 14.5 20.3881 14.5 20.25V3.75Z" fill="black"/>
</svg>

<svg xmlns="http://www.w3.org/2000/svg" width="24" height="24" viewBox="0 0 24 24"><path fill-rule="evenodd" d="M3.75 2A1.75 1.75 0 002 3.75v16.5c0 .966.784 1.75 1.75 1.75h5.5A1.75 1.75 0 0011 20.25V3.75A1.75 1.75 0 009.25 2h-5.5zM3.5 3.75a.25.25 0 01.25-.25h5.5a.25.25 0 01.25.25v16.5a.25.25 0 01-.25.25h-5.5a.25.25 0 01-.25-.25V3.75zM14.75 2A1.75 1.75 0 0013 3.75v16.5c0 .966.784 1.75 1.75 1.75h5.5A1.75 1.75 0 0022 20.25V3.75A1.75 1.75 0 0020.25 2h-5.5zm-.25 1.75a.25.25 0 01.25-.25h5.5a.25.25 0 01.25.25v16.5a.25.25 0 01-.25.25h-5.5a.25.25 0 01-.25-.25V3.75z"/></svg>
